src/images/spinner.svg

<svg width="320" height="320" viewBox="0 0 320 320" fill="none" xmlns="http://www.w3.org/2000/svg">
<path d="M160 238.041C203.101 238.041 238.041 203.101 238.041 160C238.041 116.899 203.101 81.959 160 81.959C116.899 81.959 81.959 116.899 81.959 160C81.959 203.101 116.899 238.041 160 238.041Z" fill="#FFC61B"/>
<path d="M49.954 172.067H12.606C5.941 172.067 0.539001 166.664 0.539001 160C0.539001 153.335 5.942 147.933 12.606 147.933H49.954C56.619 147.933 62.021 153.336 62.021 160C62.022 166.665 56.619 172.067 49.954 172.067ZM160 319.461C153.335 319.461 147.933 314.058 147.933 307.394V270.046C147.933 263.381 153.336 257.979 160 257.979C166.665 257.979 172.067 263.382 172.067 270.046V307.394C172.067 314.059 166.665 319.461 160 319.461ZM160 62.022C153.335 62.022 147.933 56.619 147.933 49.955V12.607C147.933 5.94201 153.336 0.540009 160 0.540009C166.665 0.540009 172.067 5.94301 172.067 12.607V49.955C172.067 56.619 166.665 62.022 160 62.022Z" fill="#FFC61B"/>
<path d="M270.113 148.394H307.461C314.126 148.394 319.528 153.797 319.528 160.461C319.528 167.126 314.125 172.528 307.461 172.528H270.113C263.448 172.528 258.046 167.125 258.046 160.461C258.045 153.796 263.448 148.394 270.113 148.394Z" fill="#FFC61B"/>
<path d="M73.165 90.2296L46.756 63.8206C42.0431 59.1077 42.0438 51.4674 46.756 46.7552C51.4688 42.0424 59.1091 42.0431 63.8213 46.7553L90.2303 73.1643C94.9432 77.8771 94.9425 85.5174 90.2303 90.2296C85.5181 94.9432 77.8779 94.9424 73.165 90.2296ZM46.756 272.267C42.0431 267.554 42.0438 259.914 46.756 255.202L73.165 228.793C77.8779 224.08 85.5181 224.081 90.2303 228.793C94.9432 233.506 94.9425 241.146 90.2303 245.858L63.8213 272.267C59.1084 276.98 51.4688 276.98 46.756 272.267ZM228.793 90.2303C224.08 85.5174 224.081 77.8771 228.793 73.165L255.202 46.756C259.915 42.0431 267.555 42.0438 272.267 46.756C276.98 51.4688 276.979 59.1091 272.267 63.8213L245.858 90.2303C241.146 94.9424 233.506 94.9432 228.793 90.2303Z" fill="#FFC61B"/>
<path d="M247.635 228.57L274.044 254.979C278.757 259.692 278.756 267.332 274.044 272.045C269.331 276.757 261.691 276.757 256.979 272.045L230.57 245.636C225.857 240.923 225.857 233.282 230.57 228.57C235.282 223.857 242.922 223.857 247.635 228.57Z" fill="#FFC61B"/>
</svg>

<svg xmlns="http://www.w3.org/2000/svg" fill="none" viewBox="0 0 320 320">
  <path fill="#FFC61B" d="M160 238.041c43.101 0 78.041-34.94 78.041-78.041S203.101 81.959 160 81.959 81.959 116.899 81.959 160s34.94 78.041 78.041 78.041ZM49.954 172.067H12.606C5.941 172.067.539 166.664.539 160c0-6.665 5.403-12.067 12.067-12.067h37.348c6.665 0 12.067 5.403 12.067 12.067.001 6.665-5.402 12.067-12.067 12.067ZM160 319.461c-6.665 0-12.067-5.403-12.067-12.067v-37.348c0-6.665 5.403-12.067 12.067-12.067 6.665 0 12.067 5.403 12.067 12.067v37.348c0 6.665-5.402 12.067-12.067 12.067Zm0-257.439c-6.665 0-12.067-5.403-12.067-12.067V12.607C147.933 5.942 153.336.54 160 .54c6.665 0 12.067 5.403 12.067 12.067v37.348c0 6.664-5.402 12.067-12.067 12.067Zm110.113 86.372h37.348c6.665 0 12.067 5.403 12.067 12.067 0 6.665-5.403 12.067-12.067 12.067h-37.348c-6.665 0-12.067-5.403-12.067-12.067-.001-6.665 5.402-12.067 12.067-12.067ZM73.165 90.23 46.756 63.82c-4.713-4.712-4.712-12.353 0-17.065 4.713-4.713 12.353-4.712 17.065 0l26.41 26.41c4.712 4.712 4.712 12.352 0 17.065-4.713 4.713-12.353 4.712-17.066 0ZM46.756 272.267c-4.713-4.713-4.712-12.353 0-17.065l26.409-26.409c4.713-4.713 12.353-4.712 17.065 0 4.713 4.713 4.712 12.353 0 17.065l-26.409 26.409c-4.713 4.713-12.352 4.713-17.065 0ZM228.793 90.23c-4.713-4.713-4.712-12.353 0-17.065l26.409-26.409c4.713-4.713 12.353-4.712 17.065 0 4.713 4.713 4.712 12.353 0 17.065l-26.409 26.41c-4.712 4.711-12.352 4.712-17.065 0Zm18.842 138.34 26.409 26.409c4.713 4.713 4.712 12.353 0 17.066-4.713 4.712-12.353 4.712-17.065 0l-26.409-26.409c-4.713-4.713-4.713-12.354 0-17.066 4.712-4.713 12.352-4.713 17.065 0Z"/>
</svg>
